src/16/actions/kstars_mw.svg

<svg xmlns="http://www.w3.org/2000/svg" width="16" height="16" viewBox="0 0 16 16">
 <defs>
  <style id="current-color-scheme" type="text/css">
   .ColorScheme-Text { color:#5d656b; } .ColorScheme-Highlight { color:#5294e2; }
  </style>
 </defs>
 <path style="fill:currentColor" class="ColorScheme-Text" d="M 10.931641 -0.05078125 C 9.8364406 -0.02378125 8.833625 -0.092528125 7.703125 0.20117188 L 7.703125 0.19921875 C 5.801625 0.99571875 4.6923594 2.759875 4.1933594 4.671875 C 4.1534984 4.830475 3.9335937 5.4610281 3.9335938 6.2363281 L 3.9335938 9.1035156 C 3.8754468 10.660416 2.7694406 11.612703 1.6191406 12.470703 C 1.0834106 12.849303 0.5249 13.178859 0 13.568359 L 0.00390625 15.949219 C 2.9728063 15.939219 4.2843437 15.928594 6.2773438 15.933594 C 7.8816438 13.471194 8.9471031 11.741741 8.9707031 9.1816406 L 8.9707031 6.2382812 C 9.0404831 5.6139813 9.27419 4.9565375 9.78125 4.8984375 C 10.66854 4.8504375 11.3975 5.1032031 11.875 5.4082031 C 12.14069 5.5797031 12.726154 5.9550781 13.646484 5.9550781 L 16 5.9550781 L 16 0.94335938 L 14.859375 0.94335938 C 14.054065 1.0083594 13.422747 0.46617187 12.685547 0.20117188 C 12.317997 0.11017188 11.688231 -0.05078125 10.931641 -0.05078125 z"/>
</svg>

<svg xmlns="http://www.w3.org/2000/svg" width="16" height="16"><defs><style id="current-color-scheme" type="text/css"></style></defs><path d="M10.932-.05C9.836-.025 8.834-.094 7.703.2V.2c-1.901.797-3.01 2.56-3.51 4.473-.04.158-.26.789-.26 1.564v2.868C3.876 10.66 2.77 11.613 1.62 12.47c-.536.378-1.094.708-1.619 1.097l.004 2.381c2.969-.01 4.28-.02 6.273-.015 1.605-2.463 2.67-4.192 2.694-6.752V6.238c.07-.624.303-1.281.81-1.34.888-.048 1.617.205 2.094.51a3.11 3.11 0 0 0 1.771.547H16V.943h-1.14c-.806.065-1.437-.477-2.174-.742-.368-.09-.998-.252-1.754-.252z" fill="currentColor" color="#5d656b"/></svg>
